!!!SOCIAL_FUNCTION:	songs of the tea dance
!!!PDT:	1922
!!!OTL: No_48_Tea_Dance_Song_(c).krn
!!!REG: Southwest
!!!LANG: Non-Tone
!!!LING_GROUP: Uto-Aztecan
**kern	**kern
*staff2	*staff1
*clefF4	*clefF4
*k[f#c#g#d#]	*k[f#c#g#d#]
*M3/4	*M3/4
8r	8B\
=1	=1
8GG#/L	2e\
8GG#/J	.
8GG#/L	.
8GG#/J	.
8GG#/L	8B\
8GG#/J	8r
=2||	=2||
*M2/4	*M2/4
2r	4e\
.	8B\L
.	8e\J
=3	=3
2r	4B\
.	4B\
=4||	=4||
*M3/4	*M3/4
2.r	4B\
.	4G#\
.	8G#\L
.	[8e\J
=5||	=5||
*M2/4	*M2/4
2r	2e\]
=6	=6
2r	4e\
.	8B\
.	8r
=7	=7
2r	4e\
.	8B\L
.	8e\J
=8	=8
2r	4B\
.	4B\
=9	=9
2r	4B\
.	4G#\
=10	=10
=	=
2r	8B\L
.	8B\J
.	8G#\L
.	8B\J
=11	=11
2r	4G#\
.	4G#\
=12	=12
2r	8G#\L
.	8F#\J
.	8E\L
.	8E\J
=13	=13
2r	8F#\L
.	8F#\J
.	8F#\
.	8r
=14	=14
2r	8F#\L
.	8F#\J
.	4E\
=15	=15
2r	8F#\L
.	8F#\J
.	8E\L
.	8F#\J
=16	=16
2r	4E\
.	8E\
.	8r
=17	=17
2r	4E\
.	4BB/
=18	=18
2r	8E\L
.	8E;\J
.	8BB/L
.	8BB/J
=19	=19
2r	4.BB/
.	8BB/
=20	=20
2r	2BB/
=21||	=21||
*M3/4	*M3/4
2.r	[2BB/
.	8BB/L]
.	8G#/J
=22	=22
2.r	2B\
.	4G#\
=23:|!	=23:|!
*M2/4	*M2/4
2r	8BB/L
.	8BB/J
.	4BB/
=24	=24
2r	8BB/L
.	8BB/J
.	8BB/L
.	8BB/J
=25	=25
2r	2BB/
==	==
*-	*-
